; generated by PrusaSlicer 2.7.1 on 2023-12-31 at 15:41:52 UTC

; 

; external perimeters extrusion width = 0.45mm
; perimeters extrusion width = 0.45mm
; infill extrusion width = 0.45mm
; solid infill extrusion width = 0.45mm
; top infill extrusion width = 0.40mm
; support material extrusion width = 0.38mm
; first layer extrusion width = 0.42mm

M201 X500 Y500 Z100 E5000 ; sets maximum accelerations, mm/sec^2
M203 X500 Y500 Z10 E60 ; sets maximum feedrates, mm / sec
M205 X8.00 Y8.00 Z0.40 E5.00 ; sets the jerk limits, mm/sec

;TYPE:Custom
G90 ; use absolute coordinates
M83 ; extruder relative mode
M104 S150 ; set temporary nozzle temp to prevent oozing during homing
M140 S60 ; set final bed temp
G4 S30 ; allow partial nozzle warmup
G28 ; home all axis
G1 Z50 F240
G1 X2.0 Y10 F3000
M104 S215 ; set final nozzle temp
M190 S60 ; wait for bed temp to stabilize
M109 S215 ; wait for nozzle temp to stabilize
G1 Z0.28 F240
G92 E0
G1 X2.0 Y140 E10 F1500 ; prime the nozzle
G1 X2.3 Y140 F5000
G92 E0
G1 X2.3 Y10 E10 F1200 ; prime the nozzle
G92 E0
G21 ; set units to millimeters
G90 ; use absolute coordinates
M83 ; use relative distances for extrusion
; Filament gcode
M107
;LAYER_CHANGE
;Z:0.2
;HEIGHT:0.2
;BEFORE_LAYER_CHANGE
G92 E0
;0.2


G1 E-5 F3600
G1 Z.2 F9000
;AFTER_LAYER_CHANGE
;0.2
G1 X54.369 Y72.7
G1 Z.2
G1 E5 F2400
M204 S500
;TYPE:Skirt/Brim
;WIDTH:0.42
G1 F1200
G1 X55.5 Y72.049 E.04092
G1 X56.37 Y71.716 E.02921
G1 X57.277 Y71.499 E.02924
G1 X58.475 Y71.394 E.03771
G1 X172.892 Y71.394 E3.58746
G1 X173.697 Y71.474 E.02536
G1 X174.976 Y71.816 E.04151
G1 X175.829 Y72.198 E.0293
G1 X177.051 Y73.014 E.04607
G1 X177.986 Y73.95 E.04148
G1 X178.78 Y75.131 E.04462
G1 X179.184 Y76.025 E.03076
G1 X179.517 Y77.256 E.03998
G1 X179.631 Y78.5 E.03917
G1 X179.631 Y152.866 E2.33169
G1 X179.553 Y153.668 E.02526
G1 X179.335 Y154.581 E.02943
G1 X178.83 Y155.8 E.04137
G1 X178.012 Y157.025 E.04619
G1 X177.371 Y157.702 E.02923
G1 X176.648 Y158.289 E.0292
G1 X175.853 Y158.778 E.02926
G1 X174.63 Y159.284 E.0415
G1 X173.723 Y159.5 E.02923
G1 X172.526 Y159.606 E.03768
G1 X58.108 Y159.606 E3.5875
G1 X57.302 Y159.526 E.0254
G1 X56.395 Y159.31 E.02923
G1 X55.173 Y158.803 E.04148
G1 X53.95 Y157.986 E.04612
G1 X53.273 Y157.346 E.02921
G1 X52.712 Y156.657 E.02786
G1 X52.061 Y155.552 E.04021
G1 X51.696 Y154.622 E.03132
G1 X51.474 Y153.699 E.02977
G1 X51.369 Y152.5 E.03774
G1 X51.369 Y78.134 E2.33169
G1 X51.448 Y77.327 E.02542
G1 X51.666 Y76.418 E.02931
G1 X52.15 Y75.242 E.03987
G1 X52.635 Y74.441 E.02936
G1 X53.214 Y73.718 E.02904
G1 X54.324 Y72.74 E.04639
G1 X54.562 Y73.025 F9000
G1 F1200
G1 X55.314 Y72.561 E.02771
G1 X56.491 Y72.073 E.03995
G1 X57.351 Y71.869 E.02771
G1 X58.475 Y71.772 E.03537
G1 X172.892 Y71.771 E3.58746
G1 X173.624 Y71.844 E.02307
G1 X174.855 Y72.173 E.03995
G1 X175.662 Y72.536 E.02774
G1 X176.802 Y73.298 E.04299
G1 X177.703 Y74.198 E.03993
G1 X178.464 Y75.337 E.04295
G1 X178.827 Y76.147 E.02783
G1 X179.156 Y77.375 E.03986
G1 X179.246 Y78.257 E.0278
G1 X179.254 Y152.866 E2.33931
G1 X179.183 Y153.595 E.02297
G1 X178.978 Y154.46 E.02787
G1 X178.492 Y155.633 E.03981
G1 X177.728 Y156.776 E.04311
G1 X177.122 Y157.418 E.02768
G1 X176.438 Y157.976 E.02768
G1 X175.686 Y158.439 E.02769
G1 X174.509 Y158.927 E.03995
G1 X173.65 Y159.131 E.02768
G1 X172.526 Y159.229 E.03538
G1 X58.108 Y159.229 E3.5875
G1 X57.376 Y159.156 E.02307
G1 X56.516 Y158.953 E.02771
G1 X55.34 Y158.465 E.03992
G1 X54.588 Y158.001 E.02771
G1 X53.903 Y157.444 E.02768
G1 X52.998 Y156.41 E.04308
G1 X52.363 Y155.311 E.0398
G1 X52.047 Y154.482 E.02782
G1 X51.844 Y153.625 E.02761
G1 X51.746 Y152.5 E.03541
G1 X51.746 Y78.134 E2.33169
G1 X51.818 Y77.401 E.02309
G1 X52.023 Y76.54 E.02775
G1 X52.509 Y75.367 E.03981
G1 X52.974 Y74.612 E.0278
G1 X53.529 Y73.931 E.02755
G1 X54.517 Y73.064 E.04121
G1 X54.764 Y73.345 F9000
G1 F1200
G1 X54.772 Y73.338 E.00033
G1 X55.481 Y72.899 E.02615
G1 X56.613 Y72.43 E.03842
G1 X57.424 Y72.239 E.02612
G1 X58.475 Y72.149 E.03307
G1 X172.892 Y72.149 E3.58746
G1 X173.55 Y72.213 E.02073
G1 X174.734 Y72.53 E.03843
G1 X175.495 Y72.874 E.02619
G1 X176.554 Y73.581 E.03992
G1 X177.419 Y74.447 E.03838
G1 X178.126 Y75.504 E.03987
G1 X178.47 Y76.268 E.02627
G1 X178.787 Y77.449 E.03834
G1 X178.877 Y78.5 E.03307
G1 X178.877 Y152.866 E2.33169
G1 X178.621 Y154.338 E.04685
G1 X178.154 Y155.467 E.03831
G1 X177.445 Y156.528 E.04001
G1 X176.874 Y157.135 E.02613
G1 X176.229 Y157.662 E.02612
G1 X175.519 Y158.101 E.02617
G1 X174.388 Y158.57 E.03839
G1 X173.576 Y158.761 E.02615
G1 X172.526 Y158.851 E.03304
G1 X58.108 Y158.851 E3.5875
G1 X56.637 Y158.595 E.04682
G1 X55.507 Y158.127 E.03835
G1 X54.797 Y157.688 E.02617
G1 X54.152 Y157.16 E.02614
G1 X53.311 Y156.201 E.03999
G1 X52.701 Y155.144 E.03826
G1 X52.404 Y154.361 E.02626
G1 X52.214 Y153.551 E.02609
G1 X52.123 Y152.5 E.03308
G1 X52.123 Y78.134 E2.33169
G1 X52.38 Y76.661 E.04688
G1 X52.847 Y75.533 E.03828
G1 X53.288 Y74.822 E.02623
G1 X53.812 Y74.18 E.02598
G1 X54.718 Y73.385 E.03779
G1 E-3.5 F3600
;WIPE_START
G1 F7200
G1 X54.764 Y73.345 E-.02896
G1 X54.772 Y73.338 E-.00505
G1 X55.481 Y72.899 E-.39611
G1 X56.613 Y72.43 E-.58202
G1 X57.424 Y72.239 E-.39576
G1 X57.617 Y72.222 E-.0921
;WIPE_END
G1 X169.904 Y147.174 F9000
G1 E5 F2400
;TYPE:Support material
G1 F1200
G1 X170.765 Y147.454 E.02839
G1 X171.464 Y148.032 E.02844
G1 X171.901 Y148.827 E.02844
G1 X172.015 Y149.726 E.02841
G1 X171.789 Y150.604 E.02843
G1 X171.256 Y151.338 E.02844
G1 X170.491 Y151.823 E.0284
G1 X169.904 Y151.974 E.019
G1 X169.297 Y151.974 E.01903
G1 X168.435 Y151.694 E.02842
G1 X167.736 Y151.116 E.02844
G1 X167.3 Y150.322 E.0284
G1 X167.186 Y149.422 E.02844
G1 X167.411 Y148.544 E.02842
G1 X167.945 Y147.811 E.02843
G1 X168.71 Y147.325 E.02842
G1 X169.297 Y147.174 E.019
G1 X169.847 Y147.171 E.01725
G1 X171.643 Y150.512 F9000
G1 F1200
G1 X171.642 Y149.185 E.04161
G1 X171.481 Y148.689 E.01635
G1 X171.224 Y148.279 E.01517
G1 X171.224 Y150.869 E.08121
G1 X170.805 Y151.267 E.01812
G1 X170.805 Y147.881 E.10617
G1 X170.386 Y147.651 E.01499
G1 X170.386 Y151.498 E.12062
G1 X169.967 Y151.617 E.01366
G1 X169.967 Y147.532 E.12808
G1 X169.548 Y147.499 E.01318
G1 X169.548 Y151.65 E.13015
G1 X169.129 Y151.597 E.01324
G1 X169.129 Y147.552 E.12683
G1 X168.71 Y147.7 E.01393
G1 X168.71 Y151.449 E.11755
G1 X168.291 Y151.184 E.01554
G1 X168.291 Y147.964 E.10096
G1 X167.872 Y148.423 E.01949
G1 X167.872 Y151.013 E.08121
G1 E-3.5 F3600
;WIPE_START
G1 F7200
G1 X167.872 Y148.423 E-1.23025
G1 X168.255 Y148.004 E-.26975
;WIPE_END
G1 X168.299 Y146.325 F9000
G1 X169.901 Y84.91
G1 X170.053 Y79.049
G1 E5 F2400
G1 F1200
G1 X170.897 Y79.383 E.02846
G1 X171.557 Y80.004 E.02841
G1 X171.943 Y80.824 E.02842
G1 X172 Y81.729 E.02843
G1 X171.72 Y82.591 E.02842
G1 X171.364 Y83.082 E.01902
G1 X170.897 Y83.468 E.019
G1 X170.053 Y83.802 E.02846
G1 X169.147 Y83.802 E.02841
G1 X168.304 Y83.468 E.02843
G1 X167.643 Y82.848 E.02842
G1 X167.257 Y82.027 E.02845
G1 X167.2 Y81.123 E.0284
G1 X167.481 Y80.26 E.02846
G1 X168.058 Y79.562 E.02839
G1 X168.853 Y79.125 E.02844
G1 X169.448 Y79.011 E.019
G1 X169.997 Y79.042 E.01724
G1 X171.643 Y82.356 F9000
G1 F1200
G1 X171.643 Y81.06 E.04064
G1 X171.533 Y80.66 E.01301
G1 X171.224 Y80.133 E.01915
G1 X171.224 Y82.718 E.08105
G1 X170.805 Y83.115 E.0181
G1 X170.805 Y79.736 E.10595
G1 X170.386 Y79.505 E.015
G1 X170.386 Y83.346 E.12043
G1 X169.967 Y83.471 E.01371
G1 X169.967 Y79.381 E.12824
G1 X169.548 Y79.351 E.01317
G1 X169.548 Y83.501 E.13012
G1 X169.129 Y83.447 E.01325
G1 X169.129 Y79.404 E.12677
G1 X168.71 Y79.547 E.01388
G1 X168.71 Y83.304 E.1178
G1 X168.291 Y83.039 E.01554
G1 X168.291 Y79.812 E.10118
G1 X167.872 Y80.276 E.0196
G1 X167.872 Y82.858 E.08096
G1 E-3.5 F3600
;WIPE_START
G1 F7200
G1 X167.872 Y80.276 E-1.22645
G1 X168.258 Y79.849 E-.27355
;WIPE_END
G1 X166.487 Y79.835 F9000
G1 X63.956 Y79.043
G1 X61.703 Y79.026
G1 E5 F2400
G1 F1200
G1 X62.566 Y79.306 E.02845
G1 X63.264 Y79.884 E.02841
G1 X63.589 Y80.396 E.01901
G1 X63.777 Y80.972 E.019
G1 X63.777 Y81.879 E.02844
G1 X63.443 Y82.722 E.02843
G1 X62.822 Y83.383 E.02844
G1 X62.002 Y83.769 E.02842
G1 X61.097 Y83.826 E.02843
G1 X60.235 Y83.546 E.02842
G1 X59.536 Y82.968 E.02844
G1 X59.1 Y82.173 E.02843
G1 X58.986 Y81.274 E.02841
G1 X59.212 Y80.396 E.02843
G1 X59.744 Y79.662 E.02842
G1 X60.51 Y79.177 E.02843
G1 X61.097 Y79.026 E.019
G1 X61.647 Y79.022 E.01725
G1 X63.128 Y82.865 F9000
G1 F1200
G1 X63.128 Y80.274 E.08124
G1 X62.709 Y79.815 E.01949
G1 X62.709 Y83.036 E.10099
G1 X62.29 Y83.3 E.01553
G1 X62.29 Y79.551 E.11755
G1 X61.871 Y79.403 E.01393
G1 X61.871 Y83.448 E.12683
G1 X61.452 Y83.501 E.01324
G1 X61.452 Y79.35 E.13015
G1 X61.033 Y79.383 E.01318
G1 X61.033 Y83.468 E.12808
G1 X60.614 Y83.349 E.01366
G1 X60.614 Y79.502 E.12062
G1 X60.195 Y79.733 E.015
G1 X60.195 Y83.118 E.10613
G1 X59.776 Y82.72 E.01812
G1 X59.776 Y80.131 E.08118
G1 X59.519 Y80.541 E.01517
G1 X59.358 Y81.036 E.01632
G1 X59.357 Y82.362 E.04158
G1 E-3.5 F3600
;WIPE_START
G1 F7200
G1 X59.358 Y81.036 E-.62985
G1 X59.519 Y80.541 E-.24725
G1 X59.776 Y80.131 E-.22985
G1 X59.776 Y80.959 E-.39305
;WIPE_END
G1 X59.889 Y84.577 F9000
G1 X61.819 Y146.105
G1 X61.854 Y147.198
G1 E5 F2400
G1 F1200
G1 X62.696 Y147.532 E.0284
G1 X63.357 Y148.152 E.02842
G1 X63.743 Y148.973 E.02845
G1 X63.8 Y149.877 E.0284
G1 X63.649 Y150.465 E.01903
G1 X63.357 Y150.996 E.019
G1 X62.696 Y151.617 E.02844
G1 X61.854 Y151.951 E.0284
G1 X60.947 Y151.951 E.02844
G1 X60.104 Y151.617 E.02843
G1 X59.443 Y150.996 E.02844
G1 X59.057 Y150.176 E.02842
G1 X59 Y149.271 E.02843
G1 X59.28 Y148.409 E.02842
G1 X59.858 Y147.71 E.02844
G1 X60.653 Y147.274 E.02843
G1 X61.248 Y147.16 E.019
G1 X61.798 Y147.191 E.01727
G1 X63.128 Y151.007 F9000
G1 F1200
G1 X63.128 Y148.424 E.08099
G1 X62.709 Y147.961 E.01958
G1 X62.709 Y151.188 E.10118
G1 X62.29 Y151.453 E.01554
G1 X62.29 Y147.696 E.1178
G1 X61.871 Y147.553 E.01388
G1 X61.871 Y151.596 E.12677
G1 X61.452 Y151.649 E.01324
G1 X61.452 Y147.499 E.13012
G1 X61.033 Y147.529 E.01317
G1 X61.033 Y151.619 E.12824
G1 X60.614 Y151.495 E.0137
G1 X60.614 Y147.654 E.12043
G1 X60.195 Y147.885 E.015
G1 X60.195 Y151.263 E.10591
G1 X59.776 Y150.866 E.0181
G1 X59.776 Y148.283 E.08099
G1 X59.467 Y148.809 E.01913
G1 X59.357 Y149.211 E.01307
G1 X59.357 Y150.504 E.04054
G1 E-3.5 F3600
;WIPE_START
G1 F7200
G1 X59.357 Y149.211 E-.61417
G1 X59.467 Y148.809 E-.19797
G1 X59.776 Y148.283 E-.28977
G1 X59.776 Y149.121 E-.39809
;WIPE_END
G1 X63.386 Y146.698 F9000
G1 X95.39 Y135.408
G1 X109.894 Y120.903
G1 X110.284 Y120.307
G1 X108.561 Y116.872
G1 X108.761 Y114.816
G1 X108.765 Y114.782
G1 X108.817 Y114.394
G1 X108.823 Y114.361
G1 X108.9 Y113.977
G1 X108.908 Y113.944
G1 X109.008 Y113.566
G1 X109.018 Y113.534
G1 X109.142 Y113.162
G1 X109.155 Y113.13
G1 X109.302 Y112.767
G1 X109.316 Y112.736
G1 X109.486 Y112.383
G1 X109.502 Y112.353
G1 X109.693 Y112.012
G1 X109.711 Y111.983
G1 X109.924 Y111.654
G1 X109.943 Y111.626
G1 X110.686 Y110.619
G1 X111.704 Y109.891
G1 X111.731 Y109.871
G1 X112.063 Y109.664
G1 X112.092 Y109.646
G1 X112.121 Y109.629
G1 X112.466 Y109.443
G1 X112.822 Y109.279
G1 X112.852 Y109.265
G1 X113.218 Y109.123
G1 X113.249 Y109.111
G1 X113.281 Y109.1
G1 X113.655 Y108.982
G1 X114.035 Y108.887
G1 X114.068 Y108.879
G1 X114.453 Y108.808
G1 X114.486 Y108.802
G1 X114.875 Y108.756
G1 X114.909 Y108.752
G1 X114.943 Y108.749
G1 X115.334 Y108.728
G1 X115.725 Y108.73
G1 X115.759 Y108.731
G1 X116.15 Y108.758
G1 X116.184 Y108.76
G1 X116.573 Y108.812
G1 X116.606 Y108.817
G1 X116.639 Y108.823
G1 X117.023 Y108.899
G1 X119.002 Y109.357
G1 X120.313 Y110.282
G1 X120.906 Y109.891
G1 X135.62 Y95.602
G1 X166.121 Y77.721
G1 E5 F2400
;TYPE:Perimeter
;WIDTH:0.419999
G1 F1200
G1 X165.644 Y78.23 E.02187
G1 X165.338 Y78.651 E.01632
G1 X164.973 Y79.314 E.02373
G1 X164.782 Y79.798 E.01631
G1 X164.594 Y80.531 E.02373
G1 X164.528 Y81.047 E.01631
G1 X164.528 Y81.804 E.02374
G1 X164.594 Y82.32 E.01631
G1 X164.782 Y83.053 E.02373
G1 X164.973 Y83.537 E.01631
G1 X165.338 Y84.201 E.02376
G1 X165.641 Y84.619 E.01619
G1 X166.162 Y85.174 E.02387
G1 X166.563 Y85.505 E.0163
G1 X167.202 Y85.911 E.02374
G1 X167.673 Y86.132 E.01631
G1 X168.393 Y86.366 E.02374
G1 X168.904 Y86.464 E.01631
G1 X169.66 Y86.511 E.02375
G1 X170.178 Y86.479 E.01627
G1 X170.923 Y86.337 E.02378
G1 X171.417 Y86.176 E.01629
G1 X172.103 Y85.854 E.02376
G1 X172.542 Y85.575 E.01631
G1 X173.305 Y84.901 E.03192
G1 X173.305 Y146.095 E1.91869
G1 X172.887 Y145.693 E.01818
G1 X172.274 Y145.248 E.02375
G1 X171.82 Y144.998 E.01625
G1 X170.74 Y144.61 E.03598
G1 X170.097 Y144.506 E.02042
G1 X169.319 Y144.497 E.0244
G1 X168.586 Y144.59 E.02317
G1 X168.085 Y144.719 E.01622
G1 X167.381 Y144.998 E.02374
G1 X166.925 Y145.249 E.01632
G1 X166.313 Y145.694 E.02373
G1 X165.939 Y146.044 E.01606
G1 X165.451 Y146.633 E.02398
G1 X165.173 Y147.072 E.01629
G1 X164.85 Y147.758 E.02377
G1 X164.689 Y148.252 E.01629
G1 X164.547 Y148.996 E.02375
G1 X164.515 Y149.514 E.01627
G1 X164.562 Y150.27 E.02375
G1 X164.659 Y150.781 E.01631
G1 X164.894 Y151.502 E.02378
G1 X165.115 Y151.972 E.01628
G1 X165.521 Y152.612 E.02376
G1 X165.852 Y153.012 E.01628
G1 X166.136 Y153.279 E.01222
G1 X64.879 Y153.279 E3.17484
G1 X65.281 Y152.862 E.01816
G1 X65.726 Y152.249 E.02375
G1 X65.976 Y151.793 E.01631
G1 X66.255 Y151.089 E.02374
G1 X66.384 Y150.586 E.01628
G1 X66.48 Y149.835 E.02374
G1 X66.48 Y149.314 E.01634
G1 X66.384 Y148.562 E.02377
G1 X66.255 Y148.06 E.01625
G1 X65.976 Y147.355 E.02377
G1 X65.726 Y146.9 E.01628
G1 X65.281 Y146.287 E.02375
G1 X64.925 Y145.908 E.0163
G1 X64.341 Y145.425 E.02376
G1 X63.902 Y145.146 E.01631
G1 X63.217 Y144.824 E.02373
G1 X62.723 Y144.663 E.01629
G1 X61.979 Y144.521 E.02375
G1 X61.46 Y144.489 E.0163
G1 X60.704 Y144.536 E.02375
G1 X60.193 Y144.634 E.01631
G1 X59.473 Y144.868 E.02374
G1 X59.002 Y145.089 E.01631
G1 X58.363 Y145.495 E.02374
G1 X57.962 Y145.826 E.0163
G1 X57.695 Y146.111 E.01224
G1 X57.695 Y84.904 E1.9191
G1 X58.205 Y85.383 E.02194
G1 X58.625 Y85.687 E.01626
G1 X59.288 Y86.052 E.02373
G1 X59.772 Y86.244 E.01633
G1 X60.506 Y86.432 E.02376
G1 X61.021 Y86.497 E.01628
G1 X61.779 Y86.497 E.02377
G1 X62.295 Y86.432 E.01631
G1 X63.028 Y86.244 E.02373
G1 X63.512 Y86.053 E.01631
G1 X64.175 Y85.688 E.02373
G1 X64.596 Y85.382 E.01632
G1 X65.148 Y84.863 E.02376
G1 X65.479 Y84.463 E.01628
G1 X65.885 Y83.824 E.02374
G1 X66.107 Y83.353 E.01633
G1 X66.341 Y82.633 E.02374
G1 X66.438 Y82.121 E.01634
G1 X66.486 Y81.366 E.02372
G1 X66.453 Y80.847 E.01631
G1 X66.311 Y80.103 E.02375
G1 X66.15 Y79.609 E.01629
G1 X65.828 Y78.923 E.02376
G1 X65.549 Y78.485 E.01628
G1 X64.875 Y77.721 E.03194
G1 X166.061 Y77.721 E3.17261
G1 X166.581 Y77.817 F9000
G1 F1200
G1 X166.437 Y77.936 E.00586
G1 X165.918 Y78.488 E.02376
G1 X165.668 Y78.832 E.01333
G1 X165.304 Y79.496 E.02374
G1 X165.147 Y79.892 E.01336
G1 X164.959 Y80.625 E.02373
G1 X164.906 Y81.047 E.01334
G1 X164.906 Y81.804 E.02374
G1 X164.959 Y82.226 E.01334
G1 X165.147 Y82.96 E.02376
G1 X165.304 Y83.355 E.01333
G1 X165.668 Y84.019 E.02374
G1 X165.916 Y84.361 E.01325
G1 X166.437 Y84.915 E.02384
G1 X166.765 Y85.187 E.01336
G1 X167.404 Y85.592 E.02372
G1 X167.789 Y85.774 E.01335
G1 X168.51 Y86.008 E.02377
G1 X168.927 Y86.087 E.01331
G1 X169.683 Y86.135 E.02375
G1 X170.108 Y86.108 E.01335
G1 X170.852 Y85.966 E.02375
G1 X171.257 Y85.835 E.01335
G1 X171.942 Y85.512 E.02375
G1 X172.301 Y85.284 E.01333
G1 X172.885 Y84.802 E.02374
G1 X173.176 Y84.491 E.01335
G1 X173.682 Y83.768 E.02767
G1 X173.682 Y147.224 E1.98961
G1 X173.459 Y146.873 E.01304
G1 X172.976 Y146.29 E.02374
G1 X172.666 Y145.999 E.01333
G1 X172.053 Y145.553 E.02377
G1 X171.681 Y145.349 E.0133
G1 X170.67 Y144.981 E.03373
G1 X170.075 Y144.882 E.01891
G1 X169.366 Y144.871 E.02223
G1 X168.633 Y144.964 E.02317
G1 X168.224 Y145.07 E.01325
G1 X167.52 Y145.349 E.02374
G1 X167.147 Y145.554 E.01335
G1 X166.534 Y145.999 E.02375
G1 X166.229 Y146.285 E.01311
G1 X165.742 Y146.873 E.02394
G1 X165.514 Y147.233 E.01336
G1 X165.191 Y147.918 E.02375
G1 X165.06 Y148.323 E.01335
G1 X164.918 Y149.067 E.02375
G1 X164.891 Y149.491 E.01332
G1 X164.938 Y150.247 E.02375
